X:270
T: STILLE NACHT HEILIGE NACHT
N: B0748
O: Europa, Mitteleuropa, Deutschland
R: Weihnachts - Lied, religioes
M: 6/8
L: 1/16
K: C
 | G,3A,G,2E,6 | G,3A,G,2E,6 |
D4DB,B,6 | C4CG,G,6 |
A,4A,2C3B,A,2 | G,3A,G,2E,6 |
A,4A,2C3B,A,2 | G,3A,G,2E,6 |
D4D2F3DB,2 | C6E4z2 |
C2G,2E,2G,3F,D,2 | C,6-C,4z2

@@@ Tune index: 2488
